X:245
T:Rambler's Hornpipe
R:Reel
M:2/4
L:1/16
K:D
(3ABc |d2cd BdAF|DFAd f2ed|cdef gece|defd A2(3ABc |
d2cd BdAF|DFAd f2ed|cdef gece|d2f2 d2:|
K:A
|:cd|efec c2A2|AEAc e2dc|B=GBd =gfed|cAce a2cd|
efed c2A2|AEAc e2dc|B=GBd =gfed|c2A2 A2:|
